; generated by PrusaSlicer 2.3.3+win64 on 2022-07-26 at 10:18:46 UTC

; 

; external perimeters extrusion width = 0.45mm
; perimeters extrusion width = 0.45mm
; infill extrusion width = 0.45mm
; solid infill extrusion width = 0.45mm
; top infill extrusion width = 0.40mm
; first layer extrusion width = 0.42mm

M73 P0 R58
M73 Q0 S58
M201 X1000 Y1000 Z200 E5000 ; sets maximum accelerations, mm/sec^2
M203 X200 Y200 Z12 E120 ; sets maximum feedrates, mm/sec
M204 P1250 R1250 T1250 ; sets acceleration (P, T) and retract acceleration (R), mm/sec^2
M205 X8.00 Y8.00 Z0.40 E4.50 ; sets the jerk limits, mm/sec
M205 S0 T0 ; sets the minimum extruding and travel feed rate, mm/sec
M107
;TYPE:Custom
M862.3 P "MK3S" ; printer model check
M862.1 P0.4 ; nozzle diameter check
M115 U3.10.0 ; tell printer latest fw version
G90 ; use absolute coordinates
M83 ; extruder relative mode
M104 S215 ; set extruder temp
M140 S60 ; set bed temp
M190 S60 ; wait for bed temp
M109 S215 ; wait for extruder temp
G28 W ; home all without mesh bed level
G80 ; mesh bed leveling
G1 Y-3.0 F1000.0 ; go outside print area
G92 E0.0
G1 X60.0 E9.0 F1000.0 ; intro line
G1 X100.0 E12.5 F1000.0 ; intro line
G92 E0.0
M221 S95

; Don't change E values below. Excessive value can damage the printer.
M907 E430 ; set extruder motor current
G21 ; set units to millimeters
G90 ; use absolute coordinates
M83 ; use relative distances for extrusion
; Filament gcode
;LAYER_CHANGE
;Z:0.2
;HEIGHT:0.2
;BEFORE_LAYER_CHANGE
G92 E0.0
;0.2


G1 E-0.80000 F2100.000
G1 Z0.400 F10800.000
;AFTER_LAYER_CHANGE
;0.2
G1 X53.819 Y90.505
G1 Z0.200
G1 E0.80000 F2100.000
M204 S1000
;TYPE:Skirt
;WIDTH:0.42
G1 F1200.000
G1 X54.105 Y89.889 E0.02130
G1 X54.477 Y89.447 E0.01811
G1 X54.945 Y89.108 E0.01811
M73 P0 R57
G1 X55.481 Y88.892 E0.01811
G1 X56.052 Y88.812 E0.01811
G1 X111.567 Y88.811 E1.74062
G1 X112.462 Y88.988 E0.02860
G1 X113.225 Y89.489 E0.02860
G1 X113.743 Y90.240 E0.02860
G1 X113.940 Y91.134 E0.02872
G1 X113.940 Y173.800 E2.59193
G1 X113.840 Y174.472 E0.02130
G1 X113.554 Y175.088 E0.02130
G1 X113.179 Y175.532 E0.01823
G1 X112.707 Y175.872 E0.01823
G1 X112.167 Y176.088 E0.01823
G1 X111.591 Y176.165 E0.01823
G1 X56.080 Y176.166 E1.74050
G1 X55.408 Y176.064 E0.02130
G1 X54.796 Y175.779 E0.02119
G1 X54.349 Y175.401 E0.01835
G1 X54.010 Y174.929 E0.01823
G1 X53.794 Y174.385 E0.01835
G1 X53.718 Y173.809 E0.01823
G1 X53.718 Y91.177 E2.59085
G1 X53.810 Y90.564 E0.01942
; printing object panelpatchtest.stl id:0 copy 0
;WIPE_START
G1 F8640.000
G1 X54.105 Y89.889 E-0.17023
G1 X54.477 Y89.447 E-0.13336
G1 X54.945 Y89.108 E-0.13336
G1 X55.481 Y88.892 E-0.13336
G1 X56.052 Y88.812 E-0.13336
G1 X56.296 Y88.812 E-0.05635
;WIPE_END
G1 E-0.04000 F2100.000
G1 Z0.600 F10800.000
G1 X59.615 Y168.450
G1 Z0.200
G1 E0.80000 F2100.000
;TYPE:External perimeter
G1 F1200.000
G1 X59.932 Y168.523 E0.01022
G1 X60.233 Y168.641 E0.01013
G1 X60.513 Y168.802 E0.01013
G1 X60.765 Y169.004 E0.01013
G1 X60.985 Y169.241 E0.01013
G1 X61.167 Y169.508 E0.01013
G1 X61.307 Y169.799 E0.01013
G1 X61.402 Y170.107 E0.01013
G1 X61.451 Y170.427 E0.01013
G1 X61.451 Y170.750 E0.01013
G1 X61.402 Y171.069 E0.01013
G1 X61.307 Y171.378 E0.01013
G1 X61.167 Y171.669 E0.01013
G1 X60.985 Y171.936 E0.01013
G1 X60.765 Y172.172 E0.01013
G1 X60.513 Y172.374 E0.01013
G1 X60.233 Y172.535 E0.01013
G1 X59.932 Y172.653 E0.01013
G1 X59.618 Y172.725 E0.01013
G1 X59.295 Y172.749 E0.01013
G1 X58.973 Y172.725 E0.01013
G1 X58.658 Y172.653 E0.01013
G1 X58.358 Y172.535 E0.01013
G1 X58.078 Y172.374 E0.01013
G1 X57.825 Y172.172 E0.01013
G1 X57.606 Y171.936 E0.01013
G1 X57.424 Y171.669 E0.01013
G1 X57.284 Y171.378 E0.01013
G1 X57.188 Y171.069 E0.01013
G1 X57.140 Y170.750 E0.01013
G1 X57.140 Y170.427 E0.01013
G1 X57.188 Y170.107 E0.01013
G1 X57.284 Y169.799 E0.01013
G1 X57.424 Y169.508 E0.01013
G1 X57.606 Y169.241 E0.01013
G1 X57.825 Y169.004 E0.01013
G1 X58.078 Y168.802 E0.01013
G1 X58.358 Y168.641 E0.01013
G1 X58.658 Y168.523 E0.01013
G1 X58.973 Y168.451 E0.01013
G1 X59.225 Y168.432 E0.00793
G1 X59.555 Y168.448 E0.01034
G1 X59.818 Y168.195 F10800.000
;WIPE_START
G1 F8640.000
G1 X59.932 Y168.523 E-0.08894
G1 X60.233 Y168.641 E-0.07458
G1 X60.513 Y168.802 E-0.07459
G1 X60.765 Y169.004 E-0.07458
G1 X60.985 Y169.241 E-0.07458
G1 X61.167 Y169.508 E-0.07459
G1 X61.307 Y169.799 E-0.07459
G1 X61.402 Y170.107 E-0.07459
G1 X61.451 Y170.427 E-0.07458
G1 X61.451 Y170.749 E-0.07440
;WIPE_END
G1 E-0.04000 F2100.000
G1 Z0.600 F10800.000
G1 X56.882 Y171.356
G1 Z0.200
G1 E0.80000 F2100.000
;TYPE:Perimeter
G1 F1200.000
G1 X56.932 Y171.516 E0.00523
G1 X57.096 Y171.858 E0.01190
G1 X57.310 Y172.171 E0.01190
G1 X57.568 Y172.450 E0.01190
G1 X57.865 Y172.686 E0.01190
G1 X58.194 Y172.876 E0.01190
G1 X58.513 Y173.001 E0.01077
G1 X56.882 Y173.001 E0.05114
G1 X56.882 Y171.416 E0.04970
;WIPE_START
G1 F8640.000
G1 X56.932 Y171.516 E-0.02561
G1 X57.096 Y171.858 E-0.08762
G1 X57.310 Y172.171 E-0.08764
G1 X57.568 Y172.450 E-0.08763
G1 X57.865 Y172.686 E-0.08763
G1 X58.194 Y172.876 E-0.08762
G1 X58.513 Y173.001 E-0.07933
G1 X57.574 Y173.001 E-0.21690
;WIPE_END
G1 E-0.04000 F2100.000
G1 Z0.600 F10800.000
G1 X56.882 Y93.620
G1 Z0.200
G1 E0.80000 F2100.000
G1 F1200.000
G1 X56.882 Y91.976 E0.05155
G1 X58.511 Y91.976 E0.05107
G1 X58.194 Y92.100 E0.01070
G1 X57.865 Y92.290 E0.01190
G1 X57.568 Y92.527 E0.01190
G1 X57.310 Y92.805 E0.01190
G1 X57.096 Y93.118 E0.01190
G1 X56.900 Y93.562 E0.01522
G1 X57.284 Y93.599 F10800.000
;TYPE:External perimeter
G1 F1200.000
G1 X57.424 Y93.308 E0.01013
G1 X57.606 Y93.041 E0.01013
G1 X57.825 Y92.804 E0.01013
G1 X58.078 Y92.602 E0.01013
G1 X58.358 Y92.441 E0.01013
G1 X58.658 Y92.323 E0.01013
G1 X58.973 Y92.251 E0.01013
G1 X59.225 Y92.232 E0.00792
G1 X59.615 Y92.250 E0.01222
G1 X59.932 Y92.323 E0.01022
G1 X60.233 Y92.441 E0.01013
G1 X60.513 Y92.602 E0.01013
G1 X60.765 Y92.804 E0.01013
G1 X60.985 Y93.041 E0.01013
G1 X61.167 Y93.308 E0.01013
G1 X61.307 Y93.599 E0.01013
G1 X61.402 Y93.907 E0.01013
G1 X61.451 Y94.227 E0.01013
G1 X61.451 Y94.550 E0.01013
G1 X61.402 Y94.869 E0.01013
G1 X61.307 Y95.178 E0.01013
G1 X61.167 Y95.469 E0.01013
G1 X60.985 Y95.736 E0.01013
G1 X60.765 Y95.972 E0.01013
G1 X60.513 Y96.174 E0.01013
G1 X60.233 Y96.335 E0.01013
G1 X59.932 Y96.453 E0.01013
G1 X59.618 Y96.525 E0.01013
G1 X59.295 Y96.549 E0.01013
G1 X58.973 Y96.525 E0.01013
G1 X58.658 Y96.453 E0.01013
G1 X58.358 Y96.335 E0.01013
G1 X58.078 Y96.174 E0.01013
G1 X57.825 Y95.972 E0.01013
G1 X57.606 Y95.736 E0.01013
G1 X57.424 Y95.469 E0.01013
G1 X57.284 Y95.178 E0.01013
G1 X57.188 Y94.869 E0.01013
G1 X57.140 Y94.550 E0.01013
G1 X57.140 Y94.227 E0.01013
G1 X57.188 Y93.907 E0.01013
G1 X57.266 Y93.656 E0.00825
G1 X57.082 Y93.346 F10800.000
;WIPE_START
G1 F8640.000
G1 X57.424 Y93.308 E-0.08830
G1 X57.606 Y93.041 E-0.07459
G1 X57.825 Y92.804 E-0.07458
G1 X58.078 Y92.602 E-0.07458
G1 X58.358 Y92.441 E-0.07458
G1 X58.658 Y92.323 E-0.07458
G1 X58.973 Y92.251 E-0.07459
G1 X59.225 Y92.232 E-0.05836
G1 X59.615 Y92.250 E-0.08998
G1 X59.932 Y92.323 E-0.07527
G1 X59.935 Y92.324 E-0.00059
;WIPE_END
G1 E-0.04000 F2100.000
G1 Z0.600 F10800.000
G1 X74.881 Y126.945
M73 Q0 S57
G1 Z0.200
G1 E0.80000 F2100.000
;TYPE:Perimeter
G1 F1200.000
G1 X75.438 Y126.705 E0.01902
G1 X75.958 Y126.539 E0.01710
G1 X76.490 Y126.419 E0.01710
G1 X77.031 Y126.347 E0.01710
G1 X77.536 Y126.324 E0.01586
G1 X78.117 Y126.346 E0.01824
G1 X78.661 Y126.419 E0.01720
G1 X79.193 Y126.539 E0.01710
G1 X79.712 Y126.705 E0.01710
G1 X80.215 Y126.916 E0.01710
G1 X80.697 Y127.172 E0.01710
G1 X81.155 Y127.468 E0.01710
G1 X81.585 Y127.804 E0.01710
G1 X81.983 Y128.177 E0.01710
G1 X82.347 Y128.583 E0.01710
G1 X82.673 Y129.020 E0.01710
G1 X82.960 Y129.484 E0.01710
G1 X83.204 Y129.972 E0.01710
G1 X83.404 Y130.479 E0.01710
G1 X83.559 Y131.002 E0.01710
G1 X83.667 Y131.537 E0.01710
G1 X83.727 Y132.079 E0.01710
G1 X83.739 Y132.624 E0.01710
G1 X83.703 Y133.169 E0.01710
G1 X83.619 Y133.708 E0.01710
G1 X83.487 Y134.237 E0.01710
G1 X83.310 Y134.753 E0.01710
G1 X83.087 Y135.251 E0.01710
G1 X82.821 Y135.727 E0.01710
G1 X82.515 Y136.178 E0.01710
G1 X82.169 Y136.600 E0.01710
G1 X81.788 Y136.990 E0.01710
G1 X81.374 Y137.344 E0.01710
G1 X80.929 Y137.661 E0.01710
G1 X80.459 Y137.937 E0.01710
G1 X79.966 Y138.171 E0.01710
G1 X79.455 Y138.360 E0.01710
G1 X78.928 Y138.503 E0.01710
G1 X78.391 Y138.599 E0.01710
G1 X77.848 Y138.647 E0.01710
G1 X77.303 Y138.647 E0.01710
G1 X76.759 Y138.599 E0.01710
G1 X76.223 Y138.503 E0.01710
G1 X75.696 Y138.360 E0.01710
G1 X75.185 Y138.171 E0.01710
G1 X74.692 Y137.937 E0.01710
G1 X74.221 Y137.661 E0.01710
G1 X73.777 Y137.344 E0.01710
G1 X73.363 Y136.990 E0.01710
G1 X72.982 Y136.600 E0.01710
G1 X72.636 Y136.178 E0.01710
G1 X72.329 Y135.727 E0.01710
G1 X72.064 Y135.250 E0.01710
G1 X71.841 Y134.753 E0.01710
G1 X71.663 Y134.237 E0.01710
G1 X71.532 Y133.708 E0.01710
G1 X71.448 Y133.169 E0.01710
G1 X71.412 Y132.624 E0.01710
G1 X71.424 Y132.079 E0.01710
G1 X71.484 Y131.537 E0.01710
G1 X71.592 Y131.002 E0.01710
G1 X71.747 Y130.479 E0.01710
G1 X71.947 Y129.972 E0.01710
G1 X72.191 Y129.484 E0.01710
G1 X72.478 Y129.020 E0.01710
G1 X72.804 Y128.583 E0.01710
G1 X73.168 Y128.177 E0.01710
G1 X73.566 Y127.804 E0.01710
G1 X73.996 Y127.468 E0.01710
G1 X74.453 Y127.172 E0.01710
G1 X74.828 Y126.973 E0.01329
G1 X75.005 Y127.307 F10800.000
G1 F1200.000
G1 X75.569 Y127.059 E0.01933
G1 X76.057 Y126.903 E0.01605
G1 X76.556 Y126.791 E0.01606
G1 X77.064 Y126.723 E0.01605
G1 X77.537 Y126.702 E0.01485
G1 X78.085 Y126.723 E0.01719
G1 X78.594 Y126.791 E0.01611
G1 X79.094 Y126.903 E0.01605
G1 X79.582 Y127.059 E0.01605
G1 X80.054 Y127.258 E0.01605
G1 X80.506 Y127.497 E0.01605
G1 X80.936 Y127.776 E0.01605
G1 X81.339 Y128.091 E0.01605
G1 X81.713 Y128.441 E0.01605
G1 X82.055 Y128.822 E0.01605
G1 X82.361 Y129.233 E0.01605
G1 X82.630 Y129.668 E0.01605
G1 X82.859 Y130.126 E0.01605
G1 X83.047 Y130.602 E0.01605
G1 X83.193 Y131.093 E0.01605
G1 X83.294 Y131.595 E0.01605
G1 X83.351 Y132.104 E0.01605
G1 X83.362 Y132.616 E0.01605
G1 X83.328 Y133.127 E0.01605
G1 X83.249 Y133.633 E0.01605
G1 X83.126 Y134.130 E0.01605
G1 X82.959 Y134.614 E0.01605
G1 X82.750 Y135.081 E0.01606
G1 X82.500 Y135.529 E0.01605
G1 X82.212 Y135.952 E0.01605
G1 X81.888 Y136.348 E0.01605
G1 X81.530 Y136.714 E0.01605
G1 X81.141 Y137.047 E0.01605
G1 X80.724 Y137.344 E0.01605
G1 X80.283 Y137.604 E0.01605
G1 X79.820 Y137.823 E0.01605
G1 X79.340 Y138.000 E0.01605
G1 X78.845 Y138.135 E0.01605
G1 X78.341 Y138.225 E0.01605
G1 X77.831 Y138.270 E0.01605
G1 X77.319 Y138.270 E0.01606
G1 X76.809 Y138.225 E0.01605
G1 X76.305 Y138.135 E0.01605
G1 X75.811 Y138.000 E0.01605
G1 X75.331 Y137.823 E0.01605
G1 X74.868 Y137.604 E0.01606
G1 X74.427 Y137.344 E0.01606
G1 X74.010 Y137.047 E0.01605
G1 X73.621 Y136.714 E0.01605
G1 X73.263 Y136.348 E0.01605
G1 X72.939 Y135.952 E0.01605
G1 X72.651 Y135.529 E0.01605
G1 X72.401 Y135.081 E0.01605
G1 X72.192 Y134.614 E0.01605
G1 X72.025 Y134.130 E0.01606
G1 X71.902 Y133.633 E0.01605
G1 X71.823 Y133.127 E0.01605
G1 X71.789 Y132.616 E0.01605
G1 X71.800 Y132.104 E0.01605
G1 X71.857 Y131.595 E0.01606
G1 X71.958 Y131.093 E0.01605
G1 X72.103 Y130.602 E0.01605
G1 X72.291 Y130.126 E0.01605
G1 X72.521 Y129.668 E0.01605
G1 X72.790 Y129.233 E0.01605
G1 X73.096 Y128.822 E0.01605
G1 X73.438 Y128.441 E0.01605
G1 X73.812 Y128.091 E0.01605
G1 X74.215 Y127.776 E0.01605
G1 X74.645 Y127.497 E0.01605
G1 X74.951 Y127.335 E0.01089
G1 X75.128 Y127.668 F10800.000
;TYPE:External perimeter
G1 F1200.000
G1 X75.700 Y127.413 E0.01964
G1 X76.156 Y127.267 E0.01501
G1 X76.623 Y127.162 E0.01501
G1 X77.097 Y127.099 E0.01501
G1 X77.538 Y127.079 E0.01384
G1 X78.053 Y127.099 E0.01615
G1 X78.528 Y127.162 E0.01503
G1 X78.995 Y127.267 E0.01501
G1 X79.451 Y127.413 E0.01501
G1 X79.892 Y127.599 E0.01501
G1 X80.315 Y127.823 E0.01501
G1 X80.717 Y128.083 E0.01501
G1 X81.094 Y128.378 E0.01501
G1 X81.443 Y128.705 E0.01501
G1 X81.762 Y129.061 E0.01501
G1 X82.049 Y129.445 E0.01501
G1 X82.300 Y129.852 E0.01501
G1 X82.515 Y130.280 E0.01501
G1 X82.691 Y130.725 E0.01501
G1 X82.826 Y131.184 E0.01501
G1 X82.921 Y131.653 E0.01501
G1 X82.974 Y132.129 E0.01501
G1 X82.985 Y132.608 E0.01501
G1 X82.953 Y133.085 E0.01501
G1 X82.879 Y133.558 E0.01501
G1 X82.764 Y134.023 E0.01501
G1 X82.608 Y134.475 E0.01501
G1 X82.412 Y134.912 E0.01501
G1 X82.179 Y135.330 E0.01501
G1 X81.910 Y135.726 E0.01501
G1 X81.607 Y136.096 E0.01501
G1 X81.272 Y136.439 E0.01501
G1 X80.908 Y136.750 E0.01501
G1 X80.519 Y137.028 E0.01501
G1 X80.106 Y137.270 E0.01501
G1 X79.674 Y137.475 E0.01501
G1 X79.225 Y137.641 E0.01501
G1 X78.763 Y137.767 E0.01501
G1 X78.291 Y137.851 E0.01501
G1 X77.815 Y137.893 E0.01501
G1 X77.336 Y137.893 E0.01501
G1 X76.859 Y137.851 E0.01501
G1 X76.388 Y137.767 E0.01501
G1 X75.926 Y137.641 E0.01501
G1 X75.477 Y137.475 E0.01501
G1 X75.045 Y137.270 E0.01501
G1 X74.632 Y137.028 E0.01501
G1 X74.242 Y136.750 E0.01501
G1 X73.879 Y136.439 E0.01501
G1 X73.544 Y136.096 E0.01501
G1 X73.241 Y135.726 E0.01501
G1 X72.972 Y135.330 E0.01501
G1 X72.739 Y134.912 E0.01501
G1 X72.543 Y134.475 E0.01501
G1 X72.387 Y134.023 E0.01501
G1 X72.272 Y133.558 E0.01501
G1 X72.198 Y133.085 E0.01501
G1 X72.166 Y132.608 E0.01501
G1 X72.177 Y132.129 E0.01501
G1 X72.230 Y131.653 E0.01501
G1 X72.324 Y131.184 E0.01501
G1 X72.460 Y130.725 E0.01501
G1 X72.636 Y130.280 E0.01501
G1 X72.850 Y129.852 E0.01501
G1 X73.102 Y129.445 E0.01501
G1 X73.388 Y129.061 E0.01501
G1 X73.708 Y128.705 E0.01501
G1 X74.057 Y128.378 E0.01501
G1 X74.434 Y128.083 E0.01501
G1 X74.836 Y127.823 E0.01501
G1 X75.075 Y127.696 E0.00848
G1 X75.154 Y127.269 F10800.000
;WIPE_START
G1 F8640.000
G1 X75.700 Y127.413 E-0.15845
G1 X76.156 Y127.267 E-0.11051
G1 X76.623 Y127.162 E-0.11053
G1 X77.097 Y127.099 E-0.11051
G1 X77.538 Y127.079 E-0.10194
G1 X78.053 Y127.099 E-0.11892
G1 X78.264 Y127.127 E-0.04914
;WIPE_END
G1 E-0.04000 F2100.000
G1 Z0.600 F10800.000
G1 X67.005 Y115.183
G1 Z0.200
G1 E0.80000 F2100.000
;TYPE:Perimeter
G1 F1200.000
G1 X66.623 Y115.361 E0.01322
G1 X66.215 Y115.470 E0.01322
G1 X65.795 Y115.507 E0.01322
G1 X65.375 Y115.470 E0.01322
G1 X64.968 Y115.361 E0.01322
G1 X64.586 Y115.183 E0.01322
G1 X64.241 Y114.941 E0.01322
G1 X63.943 Y114.643 E0.01322
G1 X63.701 Y114.297 E0.01322
G1 X63.523 Y113.915 E0.01322
G1 X63.414 Y113.508 E0.01322
G1 X63.377 Y113.088 E0.01322
G1 X63.414 Y112.668 E0.01322
G1 X63.523 Y112.261 E0.01322
G1 X63.701 Y111.879 E0.01322
G1 X63.943 Y111.533 E0.01322
G1 X64.241 Y111.235 E0.01322
G1 X64.586 Y110.993 E0.01322
G1 X64.968 Y110.815 E0.01322
G1 X65.375 Y110.706 E0.01322
G1 X65.755 Y110.673 E0.01195
G1 X66.206 Y110.704 E0.01418
G1 X66.623 Y110.815 E0.01351
G1 X67.005 Y110.993 E0.01322
G1 X67.350 Y111.235 E0.01322
G1 X67.648 Y111.533 E0.01322
G1 X67.890 Y111.879 E0.01322
G1 X68.068 Y112.261 E0.01322
G1 X68.177 Y112.668 E0.01322
G1 X68.214 Y113.088 E0.01322
G1 X68.177 Y113.508 E0.01322
G1 X68.068 Y113.915 E0.01322
G1 X67.890 Y114.297 E0.01322
G1 X67.648 Y114.643 E0.01322
G1 X67.350 Y114.941 E0.01322
G1 X67.054 Y115.148 E0.01134
G1 X66.838 Y114.839 F10800.000
G1 F1200.000
G1 X66.493 Y115.005 E0.01199
G1 X66.150 Y115.097 E0.01115
G1 X65.795 Y115.128 E0.01115
G1 X65.441 Y115.097 E0.01115
G1 X65.098 Y115.005 E0.01115
G1 X64.775 Y114.855 E0.01115
G1 X64.484 Y114.651 E0.01115
G1 X64.233 Y114.399 E0.01115
G1 X64.029 Y114.108 E0.01115
G1 X63.878 Y113.786 E0.01115
G1 X63.786 Y113.442 E0.01115
G1 X63.755 Y113.088 E0.01115
M73 Q1 S57
G1 X63.786 Y112.734 E0.01115
G1 X63.878 Y112.390 E0.01115
G1 X64.029 Y112.068 E0.01115
G1 X64.233 Y111.777 E0.01115
G1 X64.484 Y111.525 E0.01115
G1 X64.775 Y111.321 E0.01115
G1 X65.098 Y111.171 E0.01115
G1 X65.441 Y111.079 E0.01115
G1 X65.759 Y111.051 E0.01000
G1 X66.144 Y111.077 E0.01211
G1 X66.493 Y111.171 E0.01133
G1 X66.815 Y111.321 E0.01115
G1 X67.107 Y111.525 E0.01115
G1 X67.358 Y111.777 E0.01115
G1 X67.562 Y112.068 E0.01115
G1 X67.712 Y112.390 E0.01115
G1 X67.804 Y112.734 E0.01115
G1 X67.836 Y113.088 E0.01115
G1 X67.804 Y113.442 E0.01115
G1 X67.712 Y113.786 E0.01115
G1 X67.562 Y114.108 E0.01115
G1 X67.358 Y114.399 E0.01115
G1 X67.107 Y114.651 E0.01115
G1 X66.887 Y114.805 E0.00842
